/* XPM */
static char *door_xpm[] = {
"32 32 6 1",
"  c #000000",
". c #3A3A3A",
"X c #8B4513",
"o c #A0522D",
"O c #CD853F",
"+ c #FFD700",
"................................",
".OOOOOOOOOOOOOOOOOOOOOOOOOOOOOO.",
".OooXooXooXooXooXooXooXooXooXoO.",
".OooXooXooXooXooXooXooXooXooXoO.",
".O..X..X..X..X..X..X..X..X..XoO.",
".OooXooXooXooXooXooXooXooXooXoO.",
".O............................O.",
".O............................O.",
".OooXooXooXooXooXooXooXooXooXoO.",
".OooXooXooXooXooXooXooXooXooXoO.",
".OooXooXooXooXooXooXooXooXooXoO.",
".OooXooXooXooXooXooXooXooXooXoO.",
".OooXooXooXooXooXooXooXooXooXoO.",
".OooXooXooXooXooXooXooXooXooXoO.",
".OooXooXooXooXooXooXoo++++ooXoO.",
".OooXooXooXooXooXooXoo++++ooXoO.",
".OooXooXooXooXooXooXoo++++ooXoO.",
".OooXooXooXooXooXooXoo++++ooXoO.",
".OooXooXooXooXooXooXooXooXooXoO.",
".OooXooXooXooXooXooXooXooXooXoO.",
".O............................O.",
".O............................O.",
".OooXooXooXooXooXooXooXooXooXoO.",
".O..X..X..X..X..X..X..X..X..XoO.",
".OooXooXooXooXooXooXooXooXooXoO.",
".OooXooXooXooXooXooXooXooXooXoO.",
".OooXooXooXooXooXooXooXooXooXoO.",
".OooXooXooXooXooXooXooXooXooXoO.",
".OooXooXooXooXooXooXooXooXooXoO.",
".OOOOOOOOOOOOOOOOOOOOOOOOOOOOOO.",
"................................",
"................................"
};
